public/icons/social/x-twitter.svg

<svg width="15" height="14" viewBox="0 0 15 14" fill="none" xmlns="http://www.w3.org/2000/svg">
<path d="M11.5265 0.590088H13.6446L8.9848 5.94589L14.4919 13.1777H10.1951L6.80617 8.79021L2.9633 13.1777H0.814931L5.80763 7.48909L0.542603 0.590088H4.96038L7.98626 4.6145L11.5265 0.590088ZM10.7701 11.9069H11.9502L4.32495 1.80044H3.05408L10.7701 11.9069Z" fill="#3F0909"/>
</svg>

<svg xmlns="http://www.w3.org/2000/svg" width="15" height="14" fill="none" viewBox="0 0 15 14"><path fill="#FAEEE0" d="M11.53.59h2.11L8.98 5.95l5.51 7.23h-4.3L6.82 8.79l-3.85 4.39H.81l5-5.7L.54.6h4.42l3.03 4.02L11.53.6Zm-.76 11.32h1.18L4.32 1.8H3.05l7.72 10.1Z"/></svg>
